Gruvbox-Plus-Dark/panel/16/fusion-icon-panel.svg

<svg xmlns="http://www.w3.org/2000/svg" width="16" height="16" version="1">
 <defs>
  <style id="current-color-scheme" type="text/css">
   .ColorScheme-Text { color:#ebdbb2; } .ColorScheme-Highlight { color:#458588; }
  </style>
 </defs>
 <path style="fill:currentColor" class="ColorScheme-Text" d="M 1.7011719,1 C 1.3133719,1 1,1.3133719 1,1.7011719 L 1,14.298828 C 1,14.686453 1.3133719,15 1.7011719,15 l 6.9160156,0 2.9140625,0 2.767578,0 C 14.686453,15 15,14.686453 15,14.298828 L 15,1.7011719 C 15,1.3131969 14.686453,1 14.298828,1 Z M 3.0078125,3 13,3 12.98828,13 10.5,13 7.3599989,8 10.5,8 4,4 4,11 6.1139062,8.4082031 8,13 3,13 Z"/>
</svg>

<svg width="16" height="16" version="1" xmlns="http://www.w3.org/2000/svg">
  <defs>
    <style id="current-color-scheme" type="text/css">.ColorScheme-Text { color:#ebdbb2; } .ColorScheme-Highlight { color:#458588; } .ColorScheme-NeutralText { color:#fe8019; } .ColorScheme-PositiveText { color:#689d6a; } .ColorScheme-NegativeText { color:#fb4934; }</style>
  </defs>
  <path class="ColorScheme-Text" d="m1.701 1c-0.3878 0-0.7012 0.3134-0.7012 0.7012v12.6c0 0.3876 0.3134 0.7012 0.7012 0.7012h6.916 2.914 2.768c0.3876 0 0.7012-0.3135 0.7012-0.7012v-12.6c0-0.388-0.3135-0.7012-0.7012-0.7012zm1.307 2h9.992l-0.01172 10h-2.488l-3.14-5h3.14l-6.5-4v7l2.114-2.592 1.886 4.592h-5z" fill="currentColor"/>
</svg>
